resources/SVG/hitpoints-osrs.svg

<?xml version="1.0" encoding="UTF-8" standalone="no"?>
<!-- Generated by IcoMoon.io -->

<svg
   version="1.1"
   width="100px"
   height="100px"
   viewBox="0 0 32 32"
   id="svg6"
   sodipodi:docname="hitpoints-osrs.svg"
   inkscape:version="1.1 (c68e22c387, 2021-05-23)"
   xmlns:inkscape="http://www.inkscape.org/namespaces/inkscape"
   xmlns:sodipodi="http://sodipodi.sourceforge.net/DTD/sodipodi-0.dtd"
   xmlns="http://www.w3.org/2000/svg"
   xmlns:svg="http://www.w3.org/2000/svg">
  <defs
     id="defs10" />
  <sodipodi:namedview
     id="namedview8"
     pagecolor="#ffffff"
     bordercolor="#666666"
     borderopacity="1.0"
     inkscape:pageshadow="2"
     inkscape:pageopacity="0.0"
     inkscape:pagecheckerboard="0"
     showgrid="false"
     inkscape:zoom="22.627417"
     inkscape:cx="16.152971"
     inkscape:cy="16.948466"
     inkscape:window-width="1920"
     inkscape:window-height="1017"
     inkscape:window-x="1912"
     inkscape:window-y="-8"
     inkscape:window-maximized="1"
     inkscape:current-layer="svg6"
     showguides="false" />
  <title
     id="title2">hitpoints-osrs</title>
  <path
     d="M6.64 1.943c-4.126 0.917-6.171 3.773-6.595 9.098-0.212 2.962 0.317 5.607 1.693 8.287 1.552 3.033 8.146 8.816 11.743 10.333 2.715 1.128 5.149 0.564 8.816-2.081 6.348-4.584 9.345-9.063 9.663-14.424 0.423-7.194-2.539-11.285-8.146-11.25-3.033 0-5.008 0.6-6.559 2.010l-1.34 1.234-0.67-0.741c-1.693-1.869-5.889-3.068-8.605-2.469zM12.317 3.918c1.587 0.811 2.715 1.869 3.385 3.139l0.529 1.058 0.776-1.552c0.388-0.846 1.128-1.834 1.622-2.186 1.199-0.882 4.549-1.481 6.524-1.199 5.113 0.776 7.335 8.534 4.232 14.882-1.834 3.738-8.005 9.345-11.602 10.58-1.34 0.458-1.834 0.494-2.927 0.141-2.186-0.705-6.947-4.091-9.169-6.489-2.927-3.209-4.056-5.642-4.267-9.239-0.282-5.008 1.27-8.358 4.338-9.522 1.728-0.635 4.902-0.458 6.559 0.388z"
     id="path4" />
  <path
     style="fill:#ff2500;fill-opacity:1;fill-rule:evenodd;stroke:#726c65;stroke-width:0;stroke-miterlimit:4;stroke-dasharray:none"
     d="m 23.906631,3.0547496 c -1.583972,0.049055 -3.188854,0.2907463 -4.656857,0.9081693 -0.935651,0.391346 -1.55423,1.2614959 -2.042741,2.1118837 C 16.873756,6.7111969 16.556176,7.3556862 16.229879,7.995693 15.786807,7.0550329 15.286842,6.1153611 14.508837,5.4049434 13.34976,4.2496853 11.829105,3.4578266 10.202262,3.2377864 8.6045469,2.9987414 6.9012619,2.9894811 5.3899629,3.6278928 3.6218536,4.3858833 2.4306851,6.0837581 1.8823093,7.8811506 1.2848314,9.8416187 1.2382577,11.932082 1.4385468,13.958688 c 0.1973221,2.036332 0.9241005,4.008822 2.0813638,5.694772 1.1855857,1.763681 2.6435786,3.335936 4.2876036,4.680808 1.8925143,1.557121 3.8923188,3.014501 6.0921698,4.108913 0.633675,0.289594 1.300011,0.562915 1.998825,0.627781 1.401207,-0.01206 2.69724,-0.661227 3.890422,-1.335693 1.772644,-1.061002 3.395261,-2.363602 4.890625,-3.78526 1.775099,-1.719047 3.532161,-3.530855 4.685642,-5.741019 0.93993,-1.878329 1.485934,-3.966128 1.478775,-6.072419 C 30.907912,9.8909129 30.385058,7.5756937 29.100805,5.7083605 28.088373,4.2208013 26.416346,3.1254577 24.587739,3.0678203 24.36099,3.054648 24.133714,3.0517312 23.906631,3.0547496 Z"
     id="path1111" />
</svg>

<svg xmlns="http://www.w3.org/2000/svg" width="100" height="100" viewBox="0 0 32 32"><path d="M6.64 1.943C2.514 2.86.469 5.716.045 11.041c-.212 2.962.317 5.607 1.693 8.287 1.552 3.033 8.146 8.816 11.743 10.333 2.715 1.128 5.149.564 8.816-2.081 6.348-4.584 9.345-9.063 9.663-14.424.423-7.194-2.539-11.285-8.146-11.25-3.033 0-5.008.6-6.559 2.01l-1.34 1.234-.67-.741C13.552 2.54 9.356 1.341 6.64 1.94zm5.677 1.975c1.587.811 2.715 1.869 3.385 3.139l.529 1.058.776-1.552c.388-.846 1.128-1.834 1.622-2.186 1.199-.882 4.549-1.481 6.524-1.199 5.113.776 7.335 8.534 4.232 14.882-1.834 3.738-8.005 9.345-11.602 10.58-1.34.458-1.834.494-2.927.141-2.186-.705-6.947-4.091-9.169-6.489-2.927-3.209-4.056-5.642-4.267-9.239-.282-5.008 1.27-8.358 4.338-9.522 1.728-.635 4.902-.458 6.559.388z"/><path d="M23.907 3.055c-1.584.049-3.19.29-4.657.908-.936.391-1.554 1.261-2.043 2.112-.333.636-.65 1.28-.977 1.92-.443-.94-.943-1.88-1.721-2.59-1.16-1.155-2.68-1.947-4.307-2.167-1.597-.24-3.3-.249-4.812.39-1.768.758-2.96 2.456-3.508 4.253-.597 1.96-.644 4.051-.443 6.078a12.183 12.183 0 0 0 2.08 5.694 21.747 21.747 0 0 0 4.289 4.681C9.7 25.891 11.7 27.35 13.9 28.444c.633.289 1.3.562 1.999.627 1.4-.012 2.697-.661 3.89-1.336 1.773-1.06 3.395-2.363 4.89-3.785 1.776-1.719 3.533-3.53 4.686-5.741.94-1.878 1.486-3.966 1.479-6.072.064-2.246-.459-4.561-1.743-6.429-1.013-1.487-2.685-2.583-4.513-2.64a9.555 9.555 0 0 0-.681-.013Z" style="fill:#ff2500;fill-opacity:1;fill-rule:evenodd;stroke:#726c65;stroke-width:0;stroke-miterlimit:4;stroke-dasharray:none"/></svg>
